X:24
T:Springlek fr\aa{}n Gudbrandsdalen
Q:140
M:3/4
R:Springlek
L:1/8
O:Norway
K:D
{A}d2 (A<G) =F2 | E>D CD/E/ D2 | \
{A}d>e {e}f2 d2 | cA/c/ (3BGB A2 | \
{A}d2 (A<G) =F2 | E>D CD/E/ D2 |
{A}d>e {e}f2 d2 | cA/c/ d4 :| \
|: a>g (fg) (3afa | g>f (ef) (3geg |
(a>f) (d<f) (3ece | d2 ({e}d>c) A2 | \
a>g (fg) (3afa | g>f (ef) (3geg | \
(a>f) (d<f) (3ece | {c}d2 d4 :|
